src/assets/logoIcon.svg

<svg width="100" height="100" viewBox="0 0 100 100" fill="none" xmlns="http://www.w3.org/2000/svg">
<g clip-path="url(#clip0)">
<path d="M16.8293 24.3087C16.8293 31.9581 20.2391 39.3132 26.1842 44.488L47.0704 62.6679V59.8488C47.0704 58.2308 48.3821 56.9191 50 56.9191C51.618 56.9191 52.9297 58.2308 52.9297 59.8488V62.6712L73.8172 44.4882C79.7616 39.3136 83.1708 31.9589 83.1708 24.3101V0.645434C83.02 0.524535 82.8565 0.416918 82.6809 0.326098C81.7073 -0.176637 80.5338 -0.0938242 79.6405 0.540941L66.3542 9.97903C61.1069 8.24348 55.6133 7.36457 50 7.36457C44.3038 7.36457 38.7336 8.26887 33.4182 10.0548L20.3883 0.561449C19.4975 -0.0875742 18.3174 -0.18152 17.3348 0.31809C17.1534 0.410473 16.9844 0.520434 16.8293 0.644848V24.3087ZM57.8262 35.7888C57.9502 34.5689 58.8418 33.5368 60.0299 33.2357C61.2114 32.9361 62.5047 33.4318 63.1778 34.4491C63.8545 35.4718 63.8247 36.8323 63.0958 37.8204C62.369 38.8056 61.062 39.2329 59.8926 38.8788C58.5754 38.4796 57.6868 37.1614 57.8262 35.7888ZM36.3418 35.7888C36.4657 34.5708 37.3571 33.5343 38.5452 33.2357C39.7286 32.938 41.0176 33.4308 41.6934 34.4491C42.3715 35.471 42.3397 36.8329 41.6114 37.8204C40.8846 38.8056 39.5756 39.2337 38.4063 38.8788C37.0706 38.4732 36.2293 37.1654 36.3418 35.7888Z" fill="#FFEDDA"/>
<path d="M89.03 22.3744V24.31C89.03 33.6543 84.8872 42.6197 77.6642 48.9074L51.9255 71.3137C51.3741 71.7938 50.688 72.0338 50.0019 72.0338C49.3157 72.0338 48.6298 71.7938 48.0784 71.3139L25.3546 51.5346C24.8239 56.468 22.8485 61.1797 19.6595 65.0268C15.9999 69.4414 10.9163 72.5258 5.32373 73.733C7.70322 78.2344 10.8483 82.3916 14.6952 86.0566C24.1331 95.048 36.671 100 49.9999 100C63.3288 100 75.8669 95.048 85.3044 86.0564C94.781 77.0279 99.9999 65.0131 99.9999 52.225C99.9999 41.309 96.072 30.7883 89.03 22.3744Z" fill="#FFEDDA"/>
<path d="M3.90938 68.0445C12.874 66.1977 19.4162 58.3537 19.6305 49.2953H2.92969C1.31172 49.2953 0 50.607 0 52.225C0 57.841 1.00723 63.3078 2.93887 68.4383C3.22871 68.2553 3.55371 68.1178 3.90938 68.0445Z" fill="#3DB2FF"/>
</g>
<defs>
<clipPath id="clip0">
<rect width="100" height="100" fill="white"/>
</clipPath>
</defs>
</svg>

<svg width="100" height="100" fill="none" xmlns="http://www.w3.org/2000/svg"><g clip-path="url(#a)"><path d="M16.83 24.309c0 7.65 3.41 15.004 9.354 20.179l20.886 18.18v-2.82a2.93 2.93 0 0 1 5.86 0v2.823l20.887-18.183c5.945-5.174 9.354-12.53 9.354-20.178V.645a2.93 2.93 0 0 0-3.53-.104L66.353 9.979A51.942 51.942 0 0 0 50 7.365c-5.696 0-11.266.904-16.582 2.69L20.388.56a2.93 2.93 0 0 0-3.559.084v23.664Zm40.996 11.48a2.96 2.96 0 0 1 2.204-2.553 2.952 2.952 0 0 1 3.148 1.213 2.96 2.96 0 0 1-.082 3.371 2.954 2.954 0 0 1-3.203 1.059c-1.318-.4-2.206-1.718-2.067-3.09Zm-21.484 0a2.96 2.96 0 0 1 2.203-2.553 2.955 2.955 0 0 1 3.148 1.213 2.958 2.958 0 0 1-.082 3.371 2.956 2.956 0 0 1-3.205 1.059c-1.335-.406-2.177-1.714-2.064-3.09Z" fill="#FFEDDA"/><path d="M89.03 22.374v1.936c0 9.344-4.143 18.31-11.366 24.597L51.925 71.314c-.55.48-1.237.72-1.923.72-.686 0-1.372-.24-1.924-.72l-22.723-19.78a25.435 25.435 0 0 1-5.695 13.493 25.742 25.742 0 0 1-14.336 8.706c2.38 4.501 5.524 8.659 9.371 12.324C24.133 95.048 36.671 100 50 100s25.867-4.952 35.304-13.944C94.781 77.028 100 65.013 100 52.225c0-10.916-3.928-21.437-10.97-29.85Z" fill="#FFEDDA"/><path d="M3.91 68.044c8.964-1.846 15.506-9.69 15.72-18.749H2.93A2.93 2.93 0 0 0 0 52.225a45.912 45.912 0 0 0 2.939 16.213c.29-.183.615-.32.97-.394Z" fill="#3DB2FF"/></g><defs><clipPath id="a"><path fill="#fff" d="M0 0h100v100H0z"/></clipPath></defs></svg>
